devices/48/drive-removable-media.svg

<?xml version="1.0" encoding="UTF-8" standalone="no"?>
<!-- Created with Inkscape (http://www.inkscape.org/) -->

<svg
   xmlns:svg="http://www.w3.org/2000/svg"
   xmlns="http://www.w3.org/2000/svg"
   xmlns:xlink="http://www.w3.org/1999/xlink"
   version="1.0"
   width="48"
   height="48"
   id="svg3393">
  <defs
     id="defs3395">
    <radialGradient
       cx="605.71429"
       cy="486.64789"
       r="117.14286"
       fx="605.71429"
       fy="486.64789"
       id="radialGradient2447"
       xlink:href="#linearGradient5060"
       gradientUnits="userSpaceOnUse"
       gradientTransform="matrix(-0.04484747,0,0,0.02184879,37.61113,30.138555)" />
    <linearGradient
       id="linearGradient5060">
      <stop
         id="stop5062"
         style="stop-color:black;stop-opacity:1"
         offset="0" />
      <stop
         id="stop5064"
         style="stop-color:black;stop-opacity:0"
         offset="1" />
    </linearGradient>
    <radialGradient
       cx="605.71429"
       cy="486.64789"
       r="117.14286"
       fx="605.71429"
       fy="486.64789"
       id="radialGradient2445"
       xlink:href="#linearGradient5060"
       gradientUnits="userSpaceOnUse"
       gradientTransform="matrix(0.04484747,0,0,0.02184879,20.38888,30.138555)" />
    <linearGradient
       id="linearGradient5048">
      <stop
         id="stop5050"
         style="stop-color:black;stop-opacity:0"
         offset="0" />
      <stop
         id="stop5056"
         style="stop-color:black;stop-opacity:1"
         offset="0.5" />
      <stop
         id="stop5052"
         style="stop-color:black;stop-opacity:0"
         offset="1" />
    </linearGradient>
    <linearGradient
       x1="302.85715"
       y1="366.64789"
       x2="302.85715"
       y2="609.50507"
       id="linearGradient2443"
       xlink:href="#linearGradient5048"
       gradientUnits="userSpaceOnUse"
       gradientTransform="matrix(0.07635654,0,0,0.02184879,1.4025717,30.138555)" />
    <linearGradient
       id="linearGradient3484">
      <stop
         id="stop3486"
         style="stop-color:#9b9b9b;stop-opacity:1"
         offset="0" />
      <stop
         id="stop3488"
         style="stop-color:#b6b6b6;stop-opacity:1"
         offset="1" />
    </linearGradient>
    <linearGradient
       x1="34.659508"
       y1="38.099998"
       x2="34.659508"
       y2="9.9298477"
       id="linearGradient2433"
       xlink:href="#linearGradient3484"
       gradientUnits="userSpaceOnUse"
       gradientTransform="translate(0,2.9000001)" />
    <linearGradient
       id="linearGradient7056">
      <stop
         id="stop7064"
         style="stop-color:#e1e1e2;stop-opacity:1"
         offset="0" />
      <stop
         id="stop7060"
         style="stop-color:#d2d2d3;stop-opacity:1"
         offset="1" />
    </linearGradient>
    <linearGradient
       x1="28.097086"
       y1="11.999853"
       x2="28.046757"
       y2="40.000149"
       id="linearGradient2431"
       xlink:href="#linearGradient7056"
       gradientUnits="userSpaceOnUse"
       gradientTransform="matrix(0.9999605,0,0,1.003626,-4.9989982,0.8557234)" />
    <linearGradient
       x1="-59.202496"
       y1="48.914803"
       x2="-56.807388"
       y2="49.698513"
       id="linearGradient2567"
       xlink:href="#linearGradient7406"
       gradientUnits="userSpaceOnUse"
       gradientTransform="matrix(0.5555454,0,0,0.8259507,38.369299,-15.208218)" />
    <linearGradient
       id="linearGradient7406">
      <stop
         id="stop7408"
         style="stop-color:black;stop-opacity:0.40206185"
         offset="0" />
      <stop
         id="stop7410"
         style="stop-color:black;stop-opacity:0"
         offset="1" />
    </linearGradient>
    <linearGradient
       x1="-59.202496"
       y1="48.914803"
       x2="-56.807388"
       y2="49.698513"
       id="linearGradient3375"
       xlink:href="#linearGradient7406"
       gradientUnits="userSpaceOnUse"
       gradientTransform="matrix(-0.5917152,0,0,0.8259507,7.1945458,-15.208218)" />
    <linearGradient
       id="linearGradient3385">
      <stop
         id="stop3387"
         style="stop-color:#f0f0f0;stop-opacity:1"
         offset="0" />
      <stop
         id="stop3389"
         style="stop-color:#a7a7a7;stop-opacity:1"
         offset="0.30927312" />
      <stop
         id="stop3391"
         style="stop-color:#666;stop-opacity:1"
         offset="1" />
    </linearGradient>
    <linearGradient
       x1="18.093685"
       y1="39.789135"
       x2="18.093685"
       y2="46.000774"
       id="linearGradient3379"
       xlink:href="#linearGradient3385"
       gradientUnits="userSpaceOnUse"
       gradientTransform="matrix(0.9473046,0,0,1.0898032,1.264692,-5.3602459)"
       spreadMethod="reflect" />
    <linearGradient
       id="linearGradient4234">
      <stop
         id="stop4236"
         style="stop-color:#bcbcba;stop-opacity:1"
         offset="0" />
      <stop
         id="stop4238"
         style="stop-color:#787a75;stop-opacity:1"
         offset="1" />
    </linearGradient>
    <linearGradient
       x1="-56.730675"
       y1="66.838097"
       x2="-56.730675"
       y2="74.808098"
       id="linearGradient2559"
       xlink:href="#linearGradient4234"
       gradientUnits="userSpaceOnUse"
       gradientTransform="matrix(0.79098,0,0,0.9171151,68.872828,-22.400053)" />
  </defs>
  <g
     id="layer1">
    <g
       transform="matrix(1,0,0,0.9423057,-5,6.0516399)"
       id="g6029"
       style="display:inline;enable-background:new">
      <rect
         width="36.869301"
         height="5.3061337"
         x="10.565332"
         y="38.149361"
         id="rect2723"
         style="opacity:0.40206185;fill:url(#linearGradient2443);fill-opacity:1;fill-rule:nonzero;stroke:none;stroke-width:0.5;marker:none;visibility:visible;display:inline;overflow:visible" />
      <path
         d="m 47.41667,38.149545 c 0,0 0,5.30584 0,5.30584 2.30953,0.01 5.58333,-1.18877 5.58333,-2.65326 0,-1.46449 -2.57726,-2.65258 -5.58333,-2.65258 z"
         id="path2725"
         style="opacity:0.40206185;fill:url(#radialGradient2445);fill-opacity:1;fill-rule:nonzero;stroke:none;stroke-width:0.5;marker:none;visibility:visible;display:inline;overflow:visible" />
      <path
         d="m 10.58333,38.149545 c 0,0 0,5.30584 0,5.30584 C 8.2737899,43.465375 5,42.266615 5,40.802125 c 0,-1.46449 2.5772699,-2.65258 5.58333,-2.65258 z"
         id="path2727"
         style="opacity:0.40206185;fill:url(#radialGradient2447);fill-opacity:1;fill-rule:nonzero;stroke:none;stroke-width:1;marker:none;visibility:visible;display:inline;overflow:visible" />
    </g>
    <path
       d="M 46.383333,40.752108 39.740367,14.727771 c -0.192553,-0.733973 -1.2012,-1.329879 -2.049166,-1.329879 l -27.617218,0 c -1.30274,0 -2.049257,0.198573 -2.323959,1.329879 L 1.6166667,40.560345"
       id="path6345"
       style="fill:url(#linearGradient2431);fill-opacity:1;fill-rule:nonzero;stroke:url(#linearGradient2433);stroke-width:0.99578345;stroke-linecap:round;stroke-linejoin:round;stroke-miterlimit:4;stroke-opacity:1;stroke-dasharray:none;stroke-dashoffset:0;marker:none;visibility:visible;display:inline;overflow:visible;enable-background:accumulate" />
    <path
       d="m 9.8095558,13.605413 c -1.2390648,0 -1.6187086,1.5 -1.6187086,1.5 L 2.1695245,39.263775 c -0.00945,1.643286 -0.1716296,1.695912 0.1898209,2.122888 0.00254,0.0094 -0.00261,0.02187 0,0.03125 0.2745071,0.988255 0.9068919,1.687501 1.6602141,1.6875 l 27.9331025,0 c 1.004428,0 1.805483,-1.225614 1.805482,-2.75 0,-0.496481 -0.09866,-0.942446 -0.249032,-1.34375 l 0.249032,-0.5 c -1e-6,-0.01704 -2.47e-4,-0.03125 -0.02075,-0.03125 l -6.329567,-23.34375 c -1e-6,0 -0.319171,-1.53125 -1.577203,-1.53125 -1.234773,0 -14.805259,0 -16.0210662,0 z"
       id="path6434"
       style="opacity:0.4;fill:url(#linearGradient2567);fill-opacity:1;fill-rule:nonzero;stroke:none;stroke-width:0.49429032;marker:none;visibility:visible;display:inline;overflow:visible;enable-background:accumulate" />
    <path
       d="m 37.613724,13.605413 c 1.319735,0 1.724097,1.5 1.724097,1.5 l 6.413352,24.158362 c 0.01006,1.643286 0.182803,1.695912 -0.20218,2.122888 -0.0027,0.0094 0.0028,0.02187 0,0.03125 -0.292379,0.988255 -0.965937,1.687501 -1.768305,1.6875 l -29.751738,0 c -1.069823,0 -1.923033,-1.225614 -1.923032,-2.75 0,-0.496481 0.105079,-0.942446 0.265246,-1.34375 l -0.265246,-0.5 c 10e-7,-0.01704 2.64e-4,-0.03125 0.0221,-0.03125 l 6.741664,-23.34375 c 2e-6,0 0.339952,-1.53125 1.67989,-1.53125 1.315165,0 15.769182,0 17.064148,0 z"
       id="path3373"
       style="opacity:0.4;fill:url(#linearGradient3375);fill-opacity:1;fill-rule:nonzero;stroke:none;stroke-width:0.49429032;marker:none;visibility:visible;display:inline;overflow:visible;enable-background:accumulate" />
    <rect
       width="45"
       height="5.997407"
       rx="2.5862775"
       ry="2.9987032"
       x="1.5"
       y="38.502594"
       id="rect2526"
       style="fill:url(#linearGradient2559);fill-opacity:1;fill-rule:nonzero;stroke:url(#linearGradient3379);stroke-width:0.99999994;stroke-linecap:round;stroke-linejoin:round;stroke-miterlimit:4;stroke-opacity:1;stroke-dasharray:none;stroke-dashoffset:0;marker:none;visibility:visible;display:inline;overflow:visible;enable-background:accumulate" />
  </g>
</svg>

<?xml version="1.0" encoding="UTF-8" standalone="no"?>
<!-- Created with Inkscape (http://www.inkscape.org/) -->
<svg
   xmlns:svg="http://www.w3.org/2000/svg"
   xmlns="http://www.w3.org/2000/svg"
   xmlns:xlink="http://www.w3.org/1999/xlink"
   version="1.0"
   width="48"
   height="48"
   id="svg3393">
  <defs
     id="defs3395">
    <radialGradient
       cx="605.71429"
       cy="486.64789"
       r="117.14286"
       fx="605.71429"
       fy="486.64789"
       id="radialGradient2447"
       xlink:href="#linearGradient5060"
       gradientUnits="userSpaceOnUse"
       gradientTransform="matrix(-4.4847472e-2,0,0,2.1848787e-2,37.61113,30.138555)" />
    <linearGradient
       id="linearGradient5060">
      <stop
         id="stop5062"
         style="stop-color:#000000;stop-opacity:1"
         offset="0" />
      <stop
         id="stop5064"
         style="stop-color:#000000;stop-opacity:0"
         offset="1" />
    </linearGradient>
    <radialGradient
       cx="605.71429"
       cy="486.64789"
       r="117.14286"
       fx="605.71429"
       fy="486.64789"
       id="radialGradient2445"
       xlink:href="#linearGradient5060"
       gradientUnits="userSpaceOnUse"
       gradientTransform="matrix(4.4847472e-2,0,0,2.1848787e-2,20.38888,30.138555)" />
    <linearGradient
       id="linearGradient5048">
      <stop
         id="stop5050"
         style="stop-color:#000000;stop-opacity:0"
         offset="0" />
      <stop
         id="stop5056"
         style="stop-color:#000000;stop-opacity:1"
         offset="0.5" />
      <stop
         id="stop5052"
         style="stop-color:#000000;stop-opacity:0"
         offset="1" />
    </linearGradient>
    <linearGradient
       x1="302.85715"
       y1="366.64789"
       x2="302.85715"
       y2="609.50507"
       id="linearGradient2443"
       xlink:href="#linearGradient5048"
       gradientUnits="userSpaceOnUse"
       gradientTransform="matrix(7.6356542e-2,0,0,2.1848787e-2,1.4025717,30.138555)" />
    <linearGradient
       id="linearGradient3484">
      <stop
         id="stop3486"
         style="stop-color:#9b9b9b;stop-opacity:1"
         offset="0" />
      <stop
         id="stop3488"
         style="stop-color:#b6b6b6;stop-opacity:1"
         offset="1" />
    </linearGradient>
    <linearGradient
       x1="34.659508"
       y1="38.099998"
       x2="34.659508"
       y2="9.9298477"
       id="linearGradient2433"
       xlink:href="#linearGradient3484"
       gradientUnits="userSpaceOnUse"
       gradientTransform="translate(0,2.9000001)" />
    <linearGradient
       id="linearGradient7056">
      <stop
         id="stop7064"
         style="stop-color:#e1e1e2;stop-opacity:1"
         offset="0" />
      <stop
         id="stop7060"
         style="stop-color:#d2d2d3;stop-opacity:1"
         offset="1" />
    </linearGradient>
    <linearGradient
       x1="28.097086"
       y1="11.999853"
       x2="28.046757"
       y2="40.000149"
       id="linearGradient2431"
       xlink:href="#linearGradient7056"
       gradientUnits="userSpaceOnUse"
       gradientTransform="matrix(0.9999605,0,0,1.003626,-4.9989982,0.8557234)" />
    <linearGradient
       x1="-59.202496"
       y1="48.914803"
       x2="-56.807388"
       y2="49.698513"
       id="linearGradient2567"
       xlink:href="#linearGradient7406"
       gradientUnits="userSpaceOnUse"
       gradientTransform="matrix(0.5555454,0,0,0.8259507,38.369299,-15.208218)" />
    <linearGradient
       id="linearGradient7406">
      <stop
         id="stop7408"
         style="stop-color:#000000;stop-opacity:0.40206185"
         offset="0" />
      <stop
         id="stop7410"
         style="stop-color:#000000;stop-opacity:0"
         offset="1" />
    </linearGradient>
    <linearGradient
       x1="-59.202496"
       y1="48.914803"
       x2="-56.807388"
       y2="49.698513"
       id="linearGradient3375"
       xlink:href="#linearGradient7406"
       gradientUnits="userSpaceOnUse"
       gradientTransform="matrix(-0.5917152,0,0,0.8259507,7.1945458,-15.208218)" />
    <linearGradient
       id="linearGradient3385">
      <stop
         id="stop3387"
         style="stop-color:#f0f0f0;stop-opacity:1"
         offset="0" />
      <stop
         id="stop3389"
         style="stop-color:#a7a7a7;stop-opacity:1"
         offset="0.30927312" />
      <stop
         id="stop3391"
         style="stop-color:#666666;stop-opacity:1"
         offset="1" />
    </linearGradient>
    <linearGradient
       x1="18.093685"
       y1="39.789135"
       x2="18.093685"
       y2="46.000774"
       id="linearGradient3379"
       xlink:href="#linearGradient3385"
       gradientUnits="userSpaceOnUse"
       gradientTransform="matrix(0.9473046,0,0,1.0898032,1.264692,-5.3602459)"
       spreadMethod="reflect" />
    <linearGradient
       id="linearGradient4234">
      <stop
         id="stop4236"
         style="stop-color:#bcbcba;stop-opacity:1"
         offset="0" />
      <stop
         id="stop4238"
         style="stop-color:#787a75;stop-opacity:1"
         offset="1" />
    </linearGradient>
    <linearGradient
       x1="-56.730675"
       y1="66.838097"
       x2="-56.730675"
       y2="74.808098"
       id="linearGradient2559"
       xlink:href="#linearGradient4234"
       gradientUnits="userSpaceOnUse"
       gradientTransform="matrix(0.79098,0,0,0.9171151,68.872828,-22.400053)" />
  </defs>
  <g
     id="layer1">
    <g
       transform="matrix(1,0,0,0.9423057,-5,6.0516399)"
       id="g6029"
       style="display:inline;enable-background:new">
      <rect
         width="36.869301"
         height="5.3061337"
         x="10.565332"
         y="38.149361"
         id="rect2723"
         style="opacity:0.40206185;fill:url(#linearGradient2443);fill-opacity:1;fill-rule:nonzero;stroke:none;stroke-width:0.5;stroke-linecap:round;stroke-linejoin:miter;marker:none;marker-start:none;marker-mid:none;marker-end:none;stroke-miterlimit:3.42857146;stroke-dasharray:none;stroke-dashoffset:0;stroke-opacity:1;visibility:visible;display:inline;overflow:visible" />
      <path
         d="M 47.41667,38.149545 C 47.41667,38.149545 47.41667,43.455385 47.41667,43.455385 C 49.7262,43.465375 53,42.266615 53,40.802125 C 53,39.337635 50.42274,38.149545 47.41667,38.149545 z"
         id="path2725"
         style="opacity:0.40206185;fill:url(#radialGradient2445);fill-opacity:1;fill-rule:nonzero;stroke:none;stroke-width:0.5;stroke-linecap:round;stroke-linejoin:miter;marker:none;marker-start:none;marker-mid:none;marker-end:none;stroke-miterlimit:3.42857146;stroke-dasharray:none;stroke-dashoffset:0;stroke-opacity:1;visibility:visible;display:inline;overflow:visible" />
      <path
         d="M 10.58333,38.149545 C 10.58333,38.149545 10.58333,43.455385 10.58333,43.455385 C 8.2737899,43.465375 5,42.266615 5,40.802125 C 5,39.337635 7.5772699,38.149545 10.58333,38.149545 z"
         id="path2727"
         style="opacity:0.40206185;fill:url(#radialGradient2447);fill-opacity:1;fill-rule:nonzero;stroke:none;stroke-width:1;stroke-linecap:round;stroke-linejoin:miter;marker:none;marker-start:none;marker-mid:none;marker-end:none;stroke-miterlimit:4;stroke-dasharray:none;stroke-dashoffset:0;stroke-opacity:1;visibility:visible;display:inline;overflow:visible" />
    </g>
    <path
       d="M 46.383333,40.752108 L 39.740367,14.727771 C 39.547814,13.993798 38.539167,13.397892 37.691201,13.397892 L 10.073983,13.397892 C 8.771243,13.397892 8.024726,13.596465 7.750024,14.727771 L 1.6166667,40.560345"
       id="path6345"
       style="fill:url(#linearGradient2431);fill-opacity:1;fill-rule:nonzero;stroke:url(#linearGradient2433);stroke-width:0.99578345;stroke-linecap:round;stroke-linejoin:round;marker:none;marker-start:none;marker-mid:none;marker-end:none;stroke-miterlimit:4;stroke-dasharray:none;stroke-dashoffset:0;stroke-opacity:1;visibility:visible;display:inline;overflow:visible;enable-background:accumulate" />
    <path
       d="M 9.8095558,13.605413 C 8.570491,13.605413 8.1908472,15.105413 8.1908472,15.105413 L 2.1695245,39.263775 C 2.1600766,40.907061 1.9978949,40.959687 2.3593454,41.386663 C 2.3618835,41.396095 2.3567403,41.408535 2.3593454,41.417913 C 2.6338525,42.406168 3.2662373,43.105414 4.0195595,43.105413 L 31.952662,43.105413 C 32.95709,43.105413 33.758145,41.879799 33.758144,40.355413 C 33.758144,39.858932 33.659489,39.412967 33.509112,39.011663 L 33.758144,38.511663 C 33.758143,38.494621 33.757897,38.480413 33.737392,38.480413 L 27.407825,15.136663 C 27.407824,15.136663 27.088654,13.605413 25.830622,13.605413 C 24.595849,13.605413 11.025363,13.605413 9.8095558,13.605413 z"
       id="path6434"
       style="opacity:0.4;fill:url(#linearGradient2567);fill-opacity:1;fill-rule:nonzero;stroke:none;stroke-width:0.49429032;stroke-linecap:round;stroke-linejoin:round;marker:none;marker-start:none;marker-mid:none;marker-end:none;stroke-miterlimit:4;stroke-dasharray:none;stroke-dashoffset:0;stroke-opacity:1;visibility:visible;display:inline;overflow:visible;enable-background:accumulate" />
    <path
       d="M 37.613724,13.605413 C 38.933459,13.605413 39.337821,15.105413 39.337821,15.105413 L 45.751173,39.263775 C 45.761236,40.907061 45.933976,40.959687 45.548993,41.386663 C 45.54629,41.396095 45.551768,41.408535 45.548993,41.417913 C 45.256614,42.406168 44.583056,43.105414 43.780688,43.105413 L 14.02895,43.105413 C 12.959127,43.105413 12.105917,41.879799 12.105918,40.355413 C 12.105918,39.858932 12.210997,39.412967 12.371164,39.011663 L 12.105918,38.511663 C 12.105919,38.494621 12.106182,38.480413 12.128022,38.480413 L 18.869686,15.136663 C 18.869688,15.136663 19.209638,13.605413 20.549576,13.605413 C 21.864741,13.605413 36.318758,13.605413 37.613724,13.605413 z"
       id="path3373"
       style="opacity:0.4;fill:url(#linearGradient3375);fill-opacity:1;fill-rule:nonzero;stroke:none;stroke-width:0.49429032;stroke-linecap:round;stroke-linejoin:round;marker:none;marker-start:none;marker-mid:none;marker-end:none;stroke-miterlimit:4;stroke-dasharray:none;stroke-dashoffset:0;stroke-opacity:1;visibility:visible;display:inline;overflow:visible;enable-background:accumulate" />
    <rect
       width="45"
       height="5.997407"
       rx="2.5862775"
       ry="2.9987032"
       x="1.5"
       y="38.502594"
       id="rect2526"
       style="fill:url(#linearGradient2559);fill-opacity:1;fill-rule:nonzero;stroke:url(#linearGradient3379);stroke-width:0.99999994;stroke-linecap:round;stroke-linejoin:round;marker:none;marker-start:none;marker-mid:none;marker-end:none;stroke-miterlimit:4;stroke-dasharray:none;stroke-dashoffset:0;stroke-opacity:1;visibility:visible;display:inline;overflow:visible;enable-background:accumulate" />
  </g>
</svg>
